en/_assets/datasphere/transfer.svg

<svg width="20" height="17" viewBox="0 0 20 17" fill="none" xmlns="http://www.w3.org/2000/svg">
<path fill-rule="evenodd" clip-rule="evenodd" d="M8.04917 4.07583L8.59835 4.625H9.375H15.625C16.6605 4.625 17.5 5.46447 17.5 6.5V12.75C17.5 13.7855 16.6605 14.625 15.625 14.625H4.375C3.33947 14.625 2.5 13.7855 2.5 12.75V4.625C2.5 3.58947 3.33947 2.75 4.375 2.75H5.9467C6.44398 2.75 6.92089 2.94754 7.27252 3.29917L8.04917 4.07583ZM0.625 4.625C0.625 2.55393 2.30393 0.875 4.375 0.875H5.9467C6.94126 0.875 7.89509 1.27009 8.59835 1.97335L9.375 2.75H15.625C17.6961 2.75 19.375 4.42893 19.375 6.5V12.75C19.375 14.8211 17.6961 16.5 15.625 16.5H4.375C2.30393 16.5 0.625 14.8211 0.625 12.75V4.625ZM10.6629 6.46209C10.2968 6.09597 9.7032 6.09597 9.33709 6.46209C8.97097 6.8282 8.97097 7.4218 9.33709 7.78791L10.2367 8.6875H7.5C6.98223 8.6875 6.5625 9.10723 6.5625 9.625C6.5625 10.1428 6.98223 10.5625 7.5 10.5625H10.2367L9.33709 11.4621C8.97097 11.8282 8.97097 12.4218 9.33709 12.7879C9.7032 13.154 10.2968 13.154 10.6629 12.7879L13.1629 10.2879C13.529 9.9218 13.529 9.3282 13.1629 8.96209L10.6629 6.46209Z" fill="#3B6080"/>
</svg>

<svg xmlns="http://www.w3.org/2000/svg" width="20" height="17" fill="none"><path fill="#3B6080" fill-rule="evenodd" d="m8.05 4.076.548.549h7.027c1.035 0 1.875.84 1.875 1.875v6.25c0 1.036-.84 1.875-1.875 1.875H4.375A1.875 1.875 0 0 1 2.5 12.75V4.625c0-1.036.84-1.875 1.875-1.875h1.572c.497 0 .974.198 1.326.55l.776.776Zm-7.425.549a3.75 3.75 0 0 1 3.75-3.75h1.572a3.75 3.75 0 0 1 2.651 1.098l.777.777h6.25a3.75 3.75 0 0 1 3.75 3.75v6.25a3.75 3.75 0 0 1-3.75 3.75H4.375a3.75 3.75 0 0 1-3.75-3.75V4.625Zm10.038 1.837a.937.937 0 1 0-1.326 1.326l.9.9H7.5a.937.937 0 1 0 0 1.874h2.737l-.9.9a.937.937 0 1 0 1.326 1.326l2.5-2.5a.938.938 0 0 0 0-1.326l-2.5-2.5Z" clip-rule="evenodd"/></svg>
